src/images/footershapes.svg

<svg width="346" height="233" viewBox="0 0 346 233" fill="none" xmlns="http://www.w3.org/2000/svg">
<g clip-path="url(#clip0_117_145)">
<path d="M1.07635 131.299C0.925281 134.681 5.61469 137.646 11.5567 137.911C17.4987 138.181 22.4399 135.657 22.5973 132.269C23.1449 120.218 33.386 110.861 45.4337 111.403C69.3465 112.486 89.6841 93.905 90.7667 69.9848C91.3144 57.9335 101.556 48.577 113.603 49.1185C137.516 50.2015 157.854 31.6207 158.936 7.70056L137.415 6.72461C136.868 18.776 126.627 28.1325 114.579 27.591C90.666 26.508 70.3285 45.0888 69.2458 69.0089C68.6982 81.0603 58.457 90.4167 46.4094 89.8753C22.4903 88.7986 2.15271 107.379 1.07635 131.299Z" fill="#FF90E8"/>
<path d="M12.4253 139C12.1232 139 11.8148 138.994 11.5126 138.981C8.45351 138.843 5.59581 138.024 3.46197 136.677C1.1393 135.216 -0.0881278 133.289 -4.76046e-06 131.249L1.07006 131.299L-4.76046e-06 131.249C0.535028 119.393 5.67134 108.443 14.4522 100.422C23.233 92.4001 34.6009 88.2696 46.4471 88.8111C51.9863 89.063 57.2989 87.1363 61.4092 83.3836C65.5132 79.6309 67.9177 74.5119 68.1695 68.9711C69.2773 44.4591 90.1184 25.4187 114.617 26.5331C120.156 26.785 125.468 24.8583 129.579 21.1056C133.683 17.3529 136.087 12.2339 136.339 6.69307C136.352 6.40973 136.477 6.14528 136.685 5.95009C136.893 5.7612 137.17 5.66046 137.453 5.67305L158.974 6.649C159.257 6.66159 159.522 6.78752 159.717 6.9953C159.906 7.20308 160.006 7.48013 159.994 7.76347C158.917 31.5892 139.19 50.2455 115.58 50.2518C114.906 50.2518 114.226 50.2392 113.547 50.2077C108.007 49.9558 102.695 51.8826 98.5845 55.6352C94.4805 59.3879 92.076 64.5069 91.8242 70.0478C90.7479 93.8735 71.0209 112.53 47.4102 112.536C46.7367 112.536 46.0569 112.523 45.3771 112.492C33.9211 111.976 24.1772 120.873 23.661 132.338C23.5666 134.378 22.1755 136.185 19.7333 137.432C17.7127 138.465 15.1446 139.019 12.4253 139.019V139ZM44.4077 90.9015C33.8393 90.9015 23.7806 94.8053 15.8999 102.002C7.54081 109.64 2.65628 120.06 2.14642 131.344C2.08977 132.578 2.96471 133.831 4.60128 134.863C6.42668 136.015 8.91301 136.714 11.6071 136.84C14.3011 136.96 16.8378 136.488 18.7639 135.505C20.4886 134.624 21.4705 133.459 21.5272 132.219C22.1 119.582 32.8447 109.759 45.4778 110.332C68.7989 111.39 88.6329 93.2627 89.6904 69.9344C89.9673 63.8206 92.611 58.1727 97.1431 54.0359C101.675 49.8992 107.535 47.771 113.647 48.048C136.61 49.0869 156.198 31.5325 157.797 8.72052L138.404 7.84532C137.881 13.5436 135.288 18.7822 131.026 22.6734C126.494 26.8102 120.634 28.9384 114.522 28.6613C91.2011 27.6098 71.3671 45.7246 70.3096 69.0592C70.0326 75.1731 67.389 80.821 62.8569 84.9577C58.3249 89.0945 52.4647 91.2227 46.3527 90.9456C45.6981 90.9141 45.0498 90.9015 44.4014 90.9015H44.4077Z" fill="black"/>
<path d="M137.409 6.73093C137.56 3.34975 142.501 0.824878 148.45 1.08933C154.392 1.36007 159.087 4.3194 158.93 7.70058C158.779 11.0818 153.838 13.6066 147.889 13.3422C141.947 13.0714 137.252 10.1121 137.403 6.73093H137.409Z" fill="#FFD724"/>
<path d="M148.777 14.4315C148.468 14.4315 148.16 14.4252 147.845 14.4126C144.786 14.2741 141.928 13.4556 139.795 12.1081C137.472 10.6474 136.251 8.71436 136.339 6.68061C136.522 2.6446 141.859 -0.283239 148.494 0.0189901C155.128 0.321219 160.183 3.715 160 7.75101C159.824 11.5918 154.971 14.4315 148.777 14.4315ZM147.594 2.14089C142.69 2.14089 138.599 4.17463 138.479 6.77506C138.422 8.00916 139.297 9.26215 140.934 10.2948C142.759 11.447 145.246 12.1459 147.94 12.2718C153.196 12.5111 157.734 10.3955 157.86 7.65656C157.986 4.91761 153.649 2.39904 148.399 2.15978C148.129 2.14718 147.858 2.14089 147.594 2.14089Z" fill="black"/>
</g>
<path d="M334.063 207.589L318.162 209.347L315.184 182.284L281.802 183.772L277.965 149.286L244.607 150.753L241.52 123.068L256.959 117.161L258.844 134.149L292.191 132.654L296.037 167.136L329.392 165.66L334.063 207.589Z" fill="#FF7051"/>
<path d="M330.454 164.407L297.107 165.903L293.278 131.381L259.912 132.884L258.107 116.722L255.791 117.608L257.774 135.383L291.128 133.906L294.965 168.392L328.313 166.897L332.725 206.527L319.224 208.009L316.247 181.032L282.874 182.516L279.056 148.023L245.689 149.525L242.706 122.614L240.371 123.508L243.548 152.015L276.902 150.538L280.739 185.024L314.086 183.529L317.105 210.672L335.382 208.658L330.454 164.407Z" fill="#0A002D"/>
<rect x="256.734" y="117.247" width="2" height="17" transform="rotate(69.0629 256.734 117.247)" fill="#0A002D"/>
<g clip-path="url(#clip1_117_145)">
<path d="M158.996 97.3328C163.944 112.869 176.123 125.047 191.659 129.996C176.123 134.944 163.944 147.123 158.996 162.659C154.047 147.123 141.877 134.953 126.333 129.996C141.877 125.047 154.047 112.877 158.996 97.3328Z" fill="#FAD645"/>
<path d="M158.996 166L158.028 162.97C153.189 147.771 141.229 135.803 126.03 130.964L123 129.996L126.03 129.028C141.229 124.189 153.189 112.229 158.036 97.0298L159.004 94L159.972 97.0298C164.811 112.229 176.779 124.189 191.979 129.036L195.008 130.004L191.979 130.972C176.779 135.811 164.82 147.779 159.972 162.979L159.004 166.008L158.996 166ZM129.396 129.996C142.997 135.205 153.786 145.995 158.996 159.595C164.205 145.995 174.995 135.205 188.595 129.996C174.995 124.786 164.205 113.997 158.996 100.396C153.786 113.997 142.997 124.786 129.396 129.996Z" fill="#0A002D"/>
</g>
<defs>
<clipPath id="clip0_117_145">
<rect width="160" height="139" fill="white"/>
</clipPath>
<clipPath id="clip1_117_145">
<rect width="72" height="72" fill="white" transform="translate(123 94)"/>
</clipPath>
</defs>
</svg>

<svg width="346" height="233" fill="none" xmlns="http://www.w3.org/2000/svg"><g clip-path="url(#a)"><path d="M1.076 131.299c-.15 3.382 4.539 6.347 10.48 6.612 5.943.27 10.884-2.254 11.041-5.642.548-12.051 10.789-21.408 22.837-20.866 23.913 1.083 44.25-17.498 45.333-41.418.547-12.051 10.789-21.408 22.836-20.867 23.913 1.084 44.251-17.497 45.333-41.417l-21.521-.976c-.547 12.051-10.788 21.408-22.836 20.866-23.913-1.083-44.25 17.498-45.333 41.418-.548 12.051-10.789 21.408-22.837 20.866C22.49 88.8 2.153 107.38 1.076 131.3z" fill="#FF90E8"/><path d="M12.425 139c-.302 0-.61-.006-.912-.019-3.06-.138-5.917-.957-8.051-2.304-2.323-1.461-3.55-3.388-3.462-5.428l1.07.05-1.07-.05c.535-11.856 5.671-22.806 14.452-30.827 8.781-8.022 20.149-12.152 31.995-11.61 5.54.251 10.852-1.676 14.962-5.428 4.104-3.753 6.509-8.872 6.76-14.413 1.108-24.512 21.95-43.552 46.448-42.438 5.539.252 10.851-1.675 14.962-5.427 4.104-3.753 6.508-8.872 6.76-14.413.013-.283.138-.548.346-.743.208-.189.485-.29.768-.277l21.521.976c.283.013.548.139.743.346.189.208.289.485.277.768-1.077 23.826-20.804 42.483-44.414 42.489-.674 0-1.354-.013-2.033-.044-5.54-.252-10.852 1.675-14.962 5.427-4.104 3.753-6.509 8.872-6.76 14.413-1.077 23.826-20.804 42.482-44.415 42.488a44.68 44.68 0 0 1-2.033-.044c-11.456-.516-21.2 8.381-21.716 19.846-.094 2.04-1.486 3.847-3.928 5.094-2.02 1.033-4.588 1.587-7.308 1.587V139zm31.983-48.099c-10.569 0-20.627 3.904-28.508 11.101-8.36 7.638-13.244 18.058-13.754 29.342-.056 1.234.819 2.487 2.455 3.519 1.826 1.152 4.312 1.851 7.006 1.977 2.694.12 5.23-.352 7.157-1.335 1.725-.881 2.707-2.046 2.763-3.286.573-12.637 11.318-22.46 23.95-21.887C68.8 111.39 88.634 93.262 89.69 69.934c.277-6.113 2.921-11.761 7.453-15.898 4.532-4.137 10.392-6.265 16.504-5.988 22.963 1.039 42.551-16.516 44.15-39.327l-19.393-.876a22.798 22.798 0 0 1-7.378 14.828c-4.532 4.137-10.392 6.265-16.504 5.988C91.202 27.61 71.367 45.725 70.31 69.06c-.277 6.114-2.921 11.762-7.453 15.899-4.532 4.136-10.392 6.265-16.504 5.988a40.508 40.508 0 0 0-1.952-.044h.007z" fill="#000"/><path d="M137.409 6.73c.151-3.38 5.092-5.905 11.041-5.64 5.942.27 10.637 3.23 10.48 6.61-.151 3.382-5.092 5.907-11.041 5.642-5.942-.27-10.637-3.23-10.486-6.611h.006z" fill="#FFD724"/><path d="M148.777 14.431c-.309 0-.617-.006-.932-.018-3.059-.139-5.917-.957-8.05-2.305-2.323-1.46-3.544-3.394-3.456-5.427.183-4.036 5.52-6.964 12.155-6.662 6.634.302 11.689 3.696 11.506 7.732-.176 3.84-5.029 6.68-11.223 6.68zm-1.183-12.29c-4.904 0-8.995 2.034-9.115 4.634-.057 1.234.818 2.487 2.455 3.52 1.825 1.152 4.312 1.85 7.006 1.977 5.256.24 9.794-1.877 9.92-4.615.126-2.74-4.211-5.258-9.461-5.497-.27-.013-.541-.02-.805-.02z" fill="#000"/></g><path d="m334.063 207.589-15.901 1.758-2.978-27.063-33.382 1.488-3.837-34.486-33.358 1.467-3.087-27.685 15.439-5.907 1.885 16.988 33.347-1.495 3.846 34.482 33.355-1.476 4.671 41.929z" fill="#FF7051"/><path d="m330.454 164.407-33.347 1.496-3.829-34.522-33.366 1.503-1.805-16.162-2.316.886 1.983 17.775 33.354-1.477 3.837 34.486 33.348-1.495 4.412 39.63-13.501 1.482-2.977-26.977-33.373 1.484-3.818-34.493-33.367 1.502-2.983-26.911-2.335.894 3.177 28.507 33.354-1.477 3.837 34.486 33.347-1.495 3.019 27.143 18.277-2.014-4.928-44.251z" fill="#0A002D"/><path fill="#0A002D" d="m256.734 117.247.715 1.868-15.878 6.075-.715-1.868z"/><g clip-path="url(#b)"><path d="M158.996 97.333a50.31 50.31 0 0 0 32.663 32.663 50.307 50.307 0 0 0-32.663 32.663 50.312 50.312 0 0 0-32.663-32.663 50.278 50.278 0 0 0 32.663-32.663z" fill="#FAD645"/><path d="m158.996 166-.968-3.03c-4.839-15.199-16.799-27.167-31.998-32.006l-3.03-.968 3.03-.968c15.199-4.839 27.159-16.799 32.006-31.998l.968-3.03.968 3.03c4.839 15.199 16.807 27.159 32.007 32.006l3.029.968-3.029.968c-15.2 4.839-27.159 16.807-32.007 32.007l-.968 3.029-.008-.008zm-29.6-36.004a51.446 51.446 0 0 1 29.6 29.599 51.444 51.444 0 0 1 29.599-29.599 51.446 51.446 0 0 1-29.599-29.6 51.447 51.447 0 0 1-29.6 29.6z" fill="#0A002D"/></g><defs><clipPath id="a"><path fill="#fff" d="M0 0h160v139H0z"/></clipPath><clipPath id="b"><path fill="#fff" transform="translate(123 94)" d="M0 0h72v72H0z"/></clipPath></defs></svg>
